X:1
T:Title
L:1/8
Q:1/4=120
M:4/4
K:Ab
V:1 treble nm="Voice"
V:1
 E2!ped! E>E F E2 z | c2 B>B A4 | A2 F>G A>AG>F | E6 E2 | E2 B2 B2 (GF) | E2 A2 A2 c2 | %6
 B2!ped! G>G B2 A2 | (G4 F4) | E4- E>EF>G | A4 E2 A2 | B4- B>BA>B | c6 A2 | A4- A>A!ped!G>!ped!F | %13
 E4!ped! A2!p!!ped! A2 | c3 A B B3 | A6 z2 |] %16

